public/shapes/characters/487.svg

<?xml version="1.0" encoding="UTF-8"?>
<svg width="86.9px" height="57.85px" version="1.1" xmlns="http://www.w3.org/2000/svg" xmlns:cc="http://creativecommons.org/ns#" xmlns:dc="http://purl.org/dc/elements/1.1/" xmlns:rdf="http://www.w3.org/1999/02/22-rdf-syntax-ns#">
 <metadata>
  <rdf:RDF>
   <cc:Work rdf:about="">
    <dc:format>image/svg+xml</dc:format>
    <dc:type rdf:resource="http://purl.org/dc/dcmitype/StillImage"/>
    <dc:title/>
   </cc:Work>
  </rdf:RDF>
 </metadata>
 <path d="m7.0315 56.634 14.98 0.07643 0.07643-6.5729 16.891 0.30572 0.30572 6.4201h14.751l0.22929-6.2672 11.541-1.2229 11.999-10.471-2.7515-4.9679 4.815-3.6686 4.8915-1.1464-0.15286-14.292-8.1015-6.1908-16.203 2.3693-2.9043 12.458 7.2608 6.4965-2.4457 11.235-3.0572 1.1464-8.4072-15.974-17.732-5.1208-18.725 4.28-10.012 15.668 1.5286 7.4901 1.5286 2.4457z" fill="#fff"/>
 <g transform="translate(43.45 28.9)" fill-rule="evenodd">
  <path d="m-0.45 22.65h-2.4v3.9h2.4v-3.9m9.95-1.9h-7.6v5.8h7.6v-5.8m15.15-31.9q-1.6-1.6-3.9-1.6t-3.9 1.6-1.6 3.9 1.6 3.9 3.9 1.6 3.9-1.6 1.6-3.9-1.6-3.9m-47.05 31.9h-7.6v5.8h7.6v-5.8m-10 1.9h-2.4v3.9h2.4v-3.9m21.85-28.05h-1.7l0.1 1.85-5.25 3.6-5.8-2.75-0.05-0.8q-4.55 1.75-7.6 4.9l-2.4 3 0.35 4.15-3.2 2.2-0.8 3.85 4.9-3.35 5.75 2.75 0.2 2h2.9l-0.05-1.15 5.25-3.6 5.8 2.75 0.15 2h2.6l-0.05-1.15 5.25-3.6 5.8 2.75 0.15 2h3.1l-0.1-1.15 5.3-3.6 3.65 1.75q-1.7-6.15-5.5-10.45l0.45 6-5.3 3.65-5.75-2.8-0.5-6.4 5.3-3.6 5.25 2.5q-3.1-3.3-7.45-5.1l-4.75 3.25-5.8-2.75-0.2-2.7m39.1-13.5-1 0.15-0.4 0.15q-2.6 1.25-4.25 3.35 2.7 0.7 4.4 2.95 1.75 2.2 1.75 5.05t-1.75 5.1q-1.7 2.2-4.4 2.9l0.1 1.6q0 5.8-3.45 11.05-1.75 2.6-3.55 4.1l-1.4 0.7 0.65 0.55q0.55 0.45 0.55 1.15 7-0.45 12-4.7 3.3-2.8 5.3-6.8h-2.35q-0.7 0-1.1-0.55-0.45-0.55-0.3-1.25 1-4.1 4-5.8 2.6-1.45 6.5-1 0.7-3.75 0.7-6.6 0-5.5-2.3-8.55-2.4-3.25-7.35-3.55h-0.05-2.3m-22.1 5-2.65-0.1q2.65-3.1 6.9-3.5l3.7 0.25q-0.5-3.85-4.25-5.7l-3.7-1.05q5.9-2.05 11.05-0.2 2.6 0.95 4 2.3 0.65-3-2.1-5.15l-2.9-1.6q6.05-1 9.8 1.95 2.35 1.85 3.45 4.9l1.35 0.05q6.25 0.4 9.45 4.65 2.9 3.8 2.9 10.35 0 3.7-1 8.6-0.15 0.65-0.7 0.95l-1.15 0.1-2-0.3q-2.3-0.15-3.85 0.7-1.15 0.7-1.85 2.2h2.35q0.75 0 1.2 0.6t0.2 1.3l-1.2 2.65q-1.6 3.05-3.95 5.55-7.4 7.9-19.1 7.2l-0.5-0.15v6.3h-17.15v-6.3h-14.75v6.3h-17.15v-6.3h-2.45q-1.6 0-2.75-0.95-1.1-1-1.1-2.35 0-1.1 0.8-1.95 0.75-0.85 1.95-1.2 0.25-3.85 1.5-7.6 1.9-5.65 5.75-9.65 7.65-7.95 21.8-7.95 13.1 0 20.9 7.55 5.45 5.2 7.8 13.4 3.05-4.45 3.05-9.5l-0.05-1.45q-3.05-0.25-5.2-2.45t-2.35-5.25q-1.65-1.85-4.5-2.25h-2.5q0.6-1.7 2.6-2.55l1.85-0.55q-0.7-1.45-3.5-1.85"/>
  <path d="m-24.15 12.2-5.75-2.8-0.5-6.4 5.3-3.6 5.75 2.8 0.5 6.35-5.3 3.65"/>
  <path d="m-10.4 12.2-5.75-2.8-0.5-6.4 5.3-3.6 5.75 2.8 0.5 6.35-5.3 3.65"/>
 </g>
 <ellipse cx="66.646" cy="22.356" rx="1.6814" ry="1.5668"/>
</svg>

<?xml version="1.0" encoding="UTF-8" standalone="no"?>
<svg xmlns:xlink="http://www.w3.org/1999/xlink" height="57.85px" width="86.9px" xmlns="http://www.w3.org/2000/svg">
  <g transform="matrix(1.0, 0.0, 0.0, 1.0, 43.45, 28.9)">
    <path d="M-0.45 22.65 L-2.85 22.65 -2.85 26.55 -0.45 26.55 -0.45 22.65 M9.5 20.75 L1.9 20.75 1.9 26.55 9.5 26.55 9.5 20.75 M24.65 -11.15 Q23.05 -12.75 20.75 -12.75 18.45 -12.75 16.85 -11.15 15.25 -9.55 15.25 -7.25 15.25 -4.95 16.85 -3.35 18.45 -1.75 20.75 -1.75 23.05 -1.75 24.65 -3.35 26.25 -4.95 26.25 -7.25 26.25 -9.55 24.65 -11.15 M-22.4 20.75 L-30.0 20.75 -30.0 26.55 -22.4 26.55 -22.4 20.75 M-32.4 22.65 L-34.8 22.65 -34.8 26.55 -32.4 26.55 -32.4 22.65 M-10.55 -5.4 L-12.25 -5.4 -12.15 -3.55 -17.4 0.05 -23.2 -2.7 -23.25 -3.5 Q-27.8 -1.75 -30.85 1.4 L-33.25 4.4 -32.9 8.55 -36.1 10.75 -36.9 14.6 -32.0 11.25 -26.25 14.0 -26.05 16.0 -23.15 16.0 -23.2 14.85 -17.95 11.25 -12.15 14.0 -12.0 16.0 -9.4 16.0 -9.45 14.85 -4.2 11.25 1.6 14.0 1.75 16.0 4.85 16.0 4.75 14.85 10.05 11.25 13.7 13.0 Q12.0 6.85 8.2 2.55 L8.65 8.55 3.35 12.2 -2.4 9.4 -2.9 3.0 2.4 -0.6 7.65 1.9 Q4.55 -1.4 0.2 -3.2 L-4.55 0.05 -10.35 -2.7 -10.55 -5.4 M28.55 -18.9 L27.55 -18.75 27.15 -18.6 Q24.55 -17.35 22.9 -15.25 25.6 -14.55 27.3 -12.3 29.05 -10.1 29.05 -7.25 29.05 -4.4 27.3 -2.15 25.6 0.05 22.9 0.75 L23.0 2.35 Q23.0 8.15 19.55 13.4 17.8 16.0 16.0 17.5 L14.6 18.2 15.25 18.75 Q15.8 19.2 15.8 19.9 22.8 19.45 27.8 15.2 31.1 12.4 33.1 8.4 L30.75 8.4 Q30.05 8.4 29.65 7.85 29.2 7.3 29.35 6.6 30.35 2.5 33.35 0.8 35.95 -0.65 39.85 -0.2 40.55 -3.95 40.55 -6.8 40.55 -12.3 38.25 -15.35 35.85 -18.6 30.9 -18.9 L30.85 -18.9 28.55 -18.9 M6.45 -13.9 L3.8 -14.0 Q6.45 -17.1 10.7 -17.5 L14.4 -17.25 Q13.9 -21.1 10.15 -22.95 L6.45 -24.0 Q12.35 -26.05 17.5 -24.2 20.1 -23.25 21.5 -21.9 22.15 -24.9 19.4 -27.05 L16.5 -28.65 Q22.55 -29.65 26.3 -26.7 28.65 -24.85 29.75 -21.8 L31.1 -21.75 Q37.35 -21.35 40.55 -17.1 43.45 -13.3 43.45 -6.75 43.45 -3.05 42.45 1.85 42.3 2.5 41.75 2.8 L40.6 2.9 38.6 2.6 Q36.3 2.45 34.75 3.3 33.6 4.0 32.9 5.5 L35.25 5.5 Q36.0 5.5 36.45 6.1 36.9 6.7 36.65 7.4 L35.45 10.05 Q33.85 13.1 31.5 15.6 24.1 23.5 12.4 22.8 L11.9 22.65 11.9 28.95 -5.25 28.95 -5.25 22.65 -20.0 22.65 -20.0 28.95 -37.15 28.95 -37.15 22.65 -39.6 22.65 Q-41.2 22.65 -42.35 21.7 -43.45 20.7 -43.45 19.35 -43.45 18.25 -42.65 17.4 -41.9 16.55 -40.7 16.2 -40.45 12.35 -39.2 8.6 -37.3 2.95 -33.45 -1.05 -25.8 -9.0 -11.65 -9.0 1.45 -9.0 9.25 -1.45 14.7 3.75 17.05 11.95 20.1 7.5 20.1 2.45 L20.05 1.0 Q17.0 0.75 14.85 -1.45 12.7 -3.65 12.5 -6.7 10.85 -8.55 8.0 -8.95 L5.5 -8.95 Q6.1 -10.65 8.1 -11.5 L9.95 -12.05 Q9.25 -13.5 6.45 -13.9" fill="#000000" fill-rule="evenodd" stroke="none"/>
    <path d="M-24.15 12.2 L-29.9 9.4 -30.4 3.0 -25.1 -0.6 -19.35 2.2 -18.85 8.55 -24.15 12.2" fill="#000000" fill-rule="evenodd" stroke="none"/>
    <path d="M-10.4 12.2 L-16.15 9.4 -16.65 3.0 -11.35 -0.6 -5.6 2.2 -5.1 8.55 -10.4 12.2" fill="#000000" fill-rule="evenodd" stroke="none"/>
    <path d="M-30.0 20.75 L-22.4 20.75 -22.4 26.55 -30.0 26.55 -30.0 20.75" fill="#ffffff" fill-rule="evenodd" stroke="none"/>
  </g>
</svg>
